X: 10771
Q: "Andante Pastorale"
M: 6/8
L: 1/8
K: G
[|\
!p!"^Sy."B3 (Bc)A | d3 B2B | B3 (Bc)A | G3 D2z |\
!f!(e2f {a}gfe) | d3 B2G | A2B {d}cBA | GGG G2z |\
"^So."B3- BcA | d3 B2B | B3- BcA | G3 D2z |
e2f {a}gfe | d3 B2G | A2B cBd | (B3 A2)z |\
e2f {a}gfe | d3 B2G | A2B cBA | "^Sy."[GG2]g/a/b/a/ gg/a/b/a/ |
ggg g2"^So."d | A2B {d}cBA | (B3 d2)B | A2B {d}cBA |\
[GG2]"^Sy."G/A/B/A/ GB "^So."d | A2B {d}cBA | B3 dBG | FAd GFE |\
g2b g2b | gBA GGG | G4 z2 |]



